X: 459
T: A Walk In The Shire
R: polka
M: 2/4
K: Dmajor
|:"D"fgfe d2A2|"G"B2G2 d2cB|"D"A2AG FEDE|"A"FDEF E2A2|
"D"fgfe d2A2|"G"GABc d4|"A"AGFE GFED|"A7"E2A2 "D"D4|
"Bm"dedc B2F2|"G"GABc d2cB|"D"A2AG FEDE|"A"FDEF E2A2|
"Bm"dedc B2F2|"G"GABc d4|"A"edcB AFDF|"A7"E2A2 "D"D4:|

